X:176
T:Hafoty Dafydd Owen
M:6/8
L:1/8
Q:70
C:Trad. arr. J.T.
R:Slow air
N:Slightly compressed
K:D
D| E>DE F/G/FE | FBB AGF | E3 F/G/FE | GFE FED |
E3 F/G/FE | F2B Bcd | E>BB AGF |1 E>DE/F/ E2 :||2
E>DE/F/ E2F ||
G>DG AFA | BGB BAG | F>DF GDG | AFA AGF |
GDG AGA | BAB Bcd | EBB AGF | E>DE/F/ E2 ||
% ABC2Win Version 2.1 25-10-2001
